X:364
T:Duncan Gray
C:Joe Buchanan's Scottish Tome - Page 211.3
I:211 3
Z:Carl Allison
R:March
L:1/4
M:4/4
K:G
"G"D G "D"F G | "A7"A B "D"F2 | "G"G "D"A> c | "G"B G G2 | 
"G"D G "D"F G | "A7"A B "D"F2 | "G"G "D7"A> c | "G"B G G2 | 
"G"g | B d d (c/B/) | "Am"c c c2 | "Am"c> B "A7"A G | "D7"F E"G"D2 | 
"G7"d (e/d/) "C"c A | "A7"B G "D"A2 | "C"G2 A> c | "G"B G G2 :| 

